X: 32627
T: Please Give A Penny To The Poor Old Man
R: polka
M: 2/4
K: Gmajor
gfe|:d^cde d=cBA|G2 G2 G2 DG|B2Bd cBAG|F2 A2 Agfg|
d^cde d=cBA|G2 G2 G2 DG|BdBG AcAF|1 G2 G2 G2 Bc:|2 G2 G2 G2 df||
|:gfga b2ag|fagf d2df|gfga b2ag|fagf d2dc|
cBcd efg2|cBcd efg2|BdBG AcAF|1 G2 G2 G2 df:|2 G2 G2 G2||

